images/simple-way3.svg

<svg width="30" height="30" viewBox="0 0 30 30" fill="none" xmlns="http://www.w3.org/2000/svg">
<rect width="30" height="30" rx="3" fill="white"/>
<path d="M9.15625 13.5522H11.5778C11.7503 13.5522 11.8903 13.4123 11.8903 13.2397C11.8903 13.0672 11.7503 12.9272 11.5778 12.9272H9.15625C8.98369 12.9272 8.84375 13.0672 8.84375 13.2397C8.84375 13.4123 8.98366 13.5522 9.15625 13.5522Z" fill="#F98AAB"/>
<path d="M9.15625 15.7168H11.5778C11.7503 15.7168 11.8903 15.5769 11.8903 15.4043C11.8903 15.2317 11.7503 15.0918 11.5778 15.0918H9.15625C8.98369 15.0918 8.84375 15.2317 8.84375 15.4043C8.84375 15.5769 8.98366 15.7168 9.15625 15.7168Z" fill="#F98AAB"/>
<path d="M12.1588 20.955C12.0932 20.7978 11.9084 20.7207 11.7506 20.7859C11.5933 20.851 11.5167 21.037 11.5819 21.1941C11.6472 21.3514 11.8322 21.4282 11.9897 21.3631C12.1469 21.2982 12.2241 21.112 12.1588 20.955Z" fill="#F98AAB"/>
<path d="M22.9162 16.1189L19.1992 12.1289L20.3372 10.9935C20.5349 10.798 20.6438 10.5372 20.6438 10.2591C20.6438 9.98488 20.5376 9.72675 20.3449 9.53234C19.9464 9.12984 19.2904 9.12466 18.8826 9.52088C18.8816 9.52184 18.8806 9.52281 18.8796 9.52378L17.3193 11.0804H16.7363V9.88028C16.7363 9.70772 16.5964 9.56778 16.4238 9.56778H14.769V9.3125C14.769 9.13994 14.6291 9 14.4565 9C14.284 9 14.144 9.13994 14.144 9.3125V9.56778H13.0024V9.3125C13.0024 9.13994 12.8625 9 12.6899 9C12.5174 9 12.3774 9.13994 12.3774 9.3125V9.56778H11.2358V9.3125C11.2358 9.13994 11.0959 9 10.9233 9C10.7507 9 10.6108 9.13994 10.6108 9.3125V9.56778H9.46913V9.3125C9.46913 9.13994 9.32919 9 9.15663 9C8.98407 9 8.84413 9.13994 8.84413 9.3125V9.56778H7.3125C7.13994 9.56778 7 9.70772 7 9.88028V21.0741C7 21.2466 7.13994 21.3866 7.3125 21.3866H10.5023C10.6748 21.3866 10.8148 21.2466 10.8148 21.0741C10.8148 20.9015 10.6748 20.7616 10.5023 20.7616H7.625V10.1928H8.84413V10.4763C8.84413 10.6489 8.98407 10.7888 9.15663 10.7888C9.32919 10.7888 9.46913 10.6489 9.46913 10.4763V10.1928H10.6108V10.4763C10.6108 10.6489 10.7507 10.7888 10.9233 10.7888C11.0958 10.7888 11.2358 10.6489 11.2358 10.4763V10.1928H12.3774V10.4763C12.3774 10.6489 12.5173 10.7888 12.6899 10.7888C12.8624 10.7888 13.0024 10.6489 13.0024 10.4763V10.1928H14.144V10.4763C14.144 10.6489 14.2839 10.7888 14.4565 10.7888C14.629 10.7888 14.769 10.6489 14.769 10.4763V10.1928H16.1113V11.0821C15.55 11.1049 15.0139 11.342 14.6159 11.7378L12.3162 14.0374C12.1772 14.1764 12.203 14.4144 12.3674 14.5209C12.6264 14.6883 12.9166 14.7966 13.2199 14.8403C13.321 14.8548 13.4235 14.8622 13.5269 14.8622C13.5274 14.8622 13.5278 14.8622 13.5283 14.8622L13.1696 15.22C13.1435 15.246 13.1229 15.2763 13.1076 15.3089L12.1051 16.8147C12.0148 16.9504 11.9779 17.1053 11.9914 17.2555H9.15663C8.98407 17.2555 8.84413 17.3954 8.84413 17.568C8.84413 17.7405 8.98407 17.8805 9.15663 17.8805H12.6761C12.8114 17.8805 12.9478 17.8354 13.0591 17.7597L14.5829 16.7244C14.6009 16.7125 14.6183 16.6986 14.6335 16.6834L15.3403 15.9784L16.1113 16.7477V20.7616H13.2517C13.0791 20.7616 12.9392 20.9015 12.9392 21.0741C12.9392 21.2466 13.0791 21.3866 13.2517 21.3866H16.4238C16.5964 21.3866 16.7363 21.2466 16.7363 21.0741V17.3577C17.1314 17.6858 17.6239 17.8647 18.1441 17.8647H19.3908C19.6501 17.8647 19.9015 17.9722 20.079 18.158L22.4599 20.6882C22.6493 20.8895 23 20.7508 23 20.4741V16.3319C23 16.2529 22.9701 16.1767 22.9162 16.1189ZM15.0579 12.1797C15.3606 11.877 15.7751 11.7053 16.2031 11.7053H16.6927L14.7457 13.6477C14.5655 13.8206 14.395 13.9901 14.1643 14.0971C13.8239 14.2549 13.4283 14.28 13.0704 14.1671L15.0579 12.1797ZM19.3193 9.96797C19.4824 9.81091 19.7428 9.81256 19.9009 9.97222C19.9769 10.0489 20.0187 10.1508 20.0187 10.2591C20.0187 10.369 19.9758 10.4719 19.8968 10.5501L16.6309 13.8084L16.4735 13.651C16.3261 13.5036 16.1401 13.3954 15.9393 13.3398L19.3193 9.96797ZM12.7079 17.2428C12.6811 17.261 12.6562 17.2589 12.633 17.2359C12.5984 17.2016 12.6159 17.1753 12.6254 17.1611L13.442 15.9345L13.9244 16.4161L12.7079 17.2428ZM14.4131 16.0205L13.8333 15.4407L14.4288 14.8466C14.485 15.0501 14.5964 15.2358 14.7454 15.3848L14.8978 15.537L14.4131 16.0205ZM22.375 19.686L20.5326 17.7281C20.2362 17.4177 19.82 17.2397 19.3908 17.2397H18.1441C17.7219 17.2397 17.3249 17.0757 17.0263 16.7779L15.1862 14.9417C14.9205 14.7425 14.9799 14.3009 15.1863 14.0912C15.4182 13.8655 15.8047 13.866 16.0315 14.0929L17.5266 15.5879C17.6469 15.7082 17.8482 15.7082 17.9686 15.5879C18.0906 15.4659 18.0906 15.268 17.9686 15.146L17.0728 14.2503L18.7565 12.5706L22.375 16.4549V19.686Z" fill="#F98AAB"/>
</svg>

<svg xmlns="http://www.w3.org/2000/svg" width="30" height="30" fill="none"><rect width="30" height="30" fill="#fff" rx="3"/><path fill="#F98AAB" d="M9.156 13.552h2.422a.313.313 0 0 0 0-.625H9.156a.313.313 0 0 0 0 .625ZM9.156 15.717h2.422a.313.313 0 0 0 0-.625H9.156a.313.313 0 0 0 0 .625ZM12.159 20.955a.315.315 0 0 0-.408-.17.315.315 0 0 0-.17.41c.066.156.251.233.409.168a.315.315 0 0 0 .169-.408Z"/><path fill="#F98AAB" d="m22.916 16.119-3.717-3.99 1.138-1.136c.198-.195.307-.456.307-.734 0-.274-.106-.532-.3-.727a1.042 1.042 0 0 0-1.461-.011l-.003.003-1.56 1.556h-.584v-1.2a.313.313 0 0 0-.312-.312h-1.655v-.255a.313.313 0 0 0-.625 0v.255h-1.142v-.255a.313.313 0 0 0-.625 0v.255h-1.141v-.255a.313.313 0 0 0-.625 0v.255H9.469v-.255a.313.313 0 0 0-.625 0v.255H7.313A.313.313 0 0 0 7 9.88v11.194c0 .173.14.313.313.313h3.19a.313.313 0 0 0 0-.625H7.624v-10.57h1.22v.284a.313.313 0 0 0 .624 0v-.283h1.142v.283a.312.312 0 1 0 .625 0v-.283h1.141v.283a.312.312 0 1 0 .625 0v-.283h1.142v.283a.312.312 0 1 0 .625 0v-.283h1.342v.89a2.259 2.259 0 0 0-1.495.655l-2.3 2.3a.315.315 0 0 0 .051.483 2.127 2.127 0 0 0 1.16.341h.001l-.358.358a.312.312 0 0 0-.062.089l-1.003 1.506a.683.683 0 0 0-.114.44H9.157a.313.313 0 0 0 0 .626h3.52a.692.692 0 0 0 .382-.121l1.524-1.036a.328.328 0 0 0 .05-.04l.707-.706.771.77v4.014h-2.86a.312.312 0 1 0 0 .625h3.173c.172 0 .312-.14.312-.313v-3.716c.395.328.888.507 1.408.507h1.247c.26 0 .51.107.688.293l2.38 2.53c.19.202.541.063.541-.214v-4.142a.312.312 0 0 0-.084-.213Zm-7.858-3.94a1.625 1.625 0 0 1 1.145-.474h.49l-1.947 1.943c-.18.173-.351.342-.582.45-.34.157-.736.182-1.094.07l1.988-1.988Zm4.261-2.211a.415.415 0 0 1 .582.004.405.405 0 0 1-.004.578l-3.266 3.258-.157-.157a1.22 1.22 0 0 0-.535-.311l3.38-3.372Zm-6.611 7.275c-.027.018-.052.016-.075-.007-.035-.034-.017-.06-.008-.075l.817-1.227.482.482-1.216.827Zm1.705-1.223-.58-.58.596-.593c.056.203.167.389.316.538l.153.152-.485.483Zm7.962 3.666-1.842-1.958a1.586 1.586 0 0 0-1.142-.488h-1.247c-.422 0-.82-.164-1.118-.462l-1.84-1.836c-.265-.2-.206-.641 0-.85a.611.611 0 0 1 .846 0l1.495 1.496c.12.12.321.12.442 0a.313.313 0 0 0 0-.442l-.896-.896 1.683-1.68 3.619 3.885v3.231Z"/></svg>
